**kern	**silbe	**harmony	**phrase	**leadinstrument	**rhyme	**timestamp	**harte
*ICvox	*	*M4/4	*	*	*	*	*M4/4
*VRlead	*	*	*	*	*	*	*
*Hstimme	*	*	*	*	*	*	*
*D:	*	*D:	*	*	*	*	*D:
*M4/4	*	*	*	*	*	*	*
*clefG2	*	*	*	*	*	*	*
r;	.	1r;	.	r	.	0	N.C.
=1	=1	=1	=1	=1	=1	=1	=1
*>Letter>A	*>Letter>A	*>Letter>A	*>Letter>A	*>Letter>A	*>Letter>A	*>Letter>A	*>Letter>A
*>Label>Intro	*>Label>Intro	*>Label>Intro	*>Label>Intro	*>Label>Intro	*>Label>Intro	*>Label>Intro	*>Label>Intro
1r	.	1E-M	newline	synth	.	0.325	E-:maj
=2	=2	=2	=2	=2	=2	=2	=2
1r	.	2Fmm	.	synth	.	2.992	F:min9
.	.	2B-M	.	synth	.	4.325	B-:sus4(b7)
=3	=3	=3	=3	=3	=3	=3	=3
1r	.	1E-M	.	synth	.	5.658	E-:maj
=4	=4	=4	=4	=4	=4	=4	=4
1r	.	2A-mm	.	synth	.	8.324	A-:min9
.	.	2D-Mm	.	synth	.	9.658	D-:9
=5	=5	=5	=5	=5	=5	=5	=5
1r	.	2F#mm	.	synth	.	10.991	F#:min9
.	.	2BMm	.	synth	.	12.324	B:9
=6	=6	=6	=6	=6	=6	=6	=6
1r	.	2Emm	.	synth	.	13.657	E:min9
.	.	2AMm	.	synth	.	14.99	A:9/5
=7	=7	=7	=7	=7	=7	=7	=7
1r	.	1DM	newline	synth	.	16.324	D:maj
=8	=8	=8	=8	=8	=8	=8	=8
1r	.	1DM	.	synth	.	18.855	D:maj
=9	=9	=9	=9	=9	=9	=9	=9
*>Letter>B	*>Letter>B	*>Letter>B	*>Letter>B	*>Letter>B	*>Letter>B	*>Letter>B	*>Letter>B
*>Label>Verse	*>Label>Verse	*>Label>Verse	*>Label>Verse	*>Label>Verse	*>Label>Verse	*>Label>Verse	*>Label>Verse
8d	Fri-	1GMM	newline	voice	.	21.387	G:maj7
16B	-day	.	.	.	.	.	.
[16d	night,	.	.	.	A	.	.
16d]	_	.	.	.	.	.	.
16d	it	.	.	.	.	.	.
16B	was	.	.	.	.	.	.
[16d	late	.	.	.	B	.	.
16d]	_	.	.	.	.	.	.
16d	I	.	.	.	.	.	.
8B	was	.	.	.	.	.	.
16d	wal-	.	.	.	.	.	.
16d	-king	.	.	.	.	.	.
16B	you	.	.	.	.	.	.
[16d	home	.	.	.	.	.	.
=10	=10	=10	=10	=10	=10	=10	=10
8d]	_	1GMM	.	voice	.	23.962	G:maj7
16B	We	.	.	.	.	.	.
[16d	got	.	.	.	.	.	.
16d]	_	.	.	.	.	.	.
8B	down	.	.	.	.	.	.
[16d	to	.	.	.	.	.	.
16d]	_	.	.	.	.	.	.
16B	the	.	.	.	.	.	.
8d	gate	.	.	.	B	.	.
16B	And	.	.	.	.	.	.
8f#	I	.	.	.	.	.	.
16g	was	.	.	.	.	.	.
=11	=11	=11	=11	=11	=11	=11	=11
8f#	dream-	1CMm	.	voice	.	26.537	C:9(13,#11)
16d	-ing	.	.	.	.	.	.
[16d	of	.	.	.	.	.	.
16d]	_	.	.	.	.	.	.
16B-	the	.	.	.	.	.	.
[8B-	night	.	.	.	A	.	.
2B-]	_	.	.	.	.	.	.
=12	=12	=12	=12	=12	=12	=12	=12
1r	.	1CMm	.	voice	.	29.112	C:9(13,#11)
=13	=13	=13	=13	=13	=13	=13	=13
16B	Would	1BMm	.	voice	.	31.688	B:9
8F#	it	.	.	.	.	.	.
[16F#	turn	.	.	.	.	.	.
16F#]	_	.	.	.	.	.	.
8D#	out	.	.	.	.	.	.
[16D#	right?	.	.	.	A	.	.
2D#]	_	.	.	.	.	.	.
=14	=14	=14	=14	=14	=14	=14	=14
2r	.	1BMm	.	voice	.	34.263	B:9
4r	.	.	.	.	.	.	.
8f#	How	.	.	.	.	.	.
8g	to	.	.	.	.	.	.
=15	=15	=15	=15	=15	=15	=15	=15
4f#	tell	1GMM	newline	voice	.	36.838	G:maj7
8d	you,	.	.	.	.	.	.
[8d	girl	.	.	.	C	.	.
2d]	_	.	.	.	.	.	.
=16	=16	=16	=16	=16	=16	=16	=16
2r	.	1GMM	.	voice	.	39.387	G:maj7
8r	.	.	.	.	.	.	.
8f#	I	.	.	.	.	.	.
8f#	wan-	.	.	.	.	.	.
16g	-na	.	.	.	.	.	.
[16a	build	.	.	.	.	.	.
=17	=17	=17	=17	=17	=17	=17	=17
8a]	_	1CMm	.	voice	.	41.936	C:9(13,#11)
8g	my	.	.	.	.	.	.
8f#	world	.	.	.	C	.	.
16g	a-	.	.	.	.	.	.
[16f#	-round	.	.	.	.	.	.
8f#]	_	.	.	.	.	.	.
[8d	you	.	.	.	D	.	.
4d]	_	.	.	.	.	.	.
=18	=18	=18	=18	=18	=18	=18	=18
1r	.	1CMm	.	voice	.	44.484	C:9(13,#11)
=19	=19	=19	=19	=19	=19	=19	=19
8d#	Tell	1BMm	.	voice	.	47.033	B:9
8B	you	.	.	.	.	.	.
16B	that	.	.	.	.	.	.
8A	it's	.	.	.	.	.	.
[16B	true	.	.	.	D	.	.
16B]	_	.	.	.	.	.	.
16A	_	.	.	.	.	.	.
[8F#	_	.	.	.	.	.	.
4F#]	_	.	.	.	.	.	.
=20	=20	=20	=20	=20	=20	=20	=20
1r	.	1BMm	.	voice	.	49.582	B:9
=21	=21	=21	=21	=21	=21	=21	=21
*>Letter>C	*>Letter>C	*>Letter>C	*>Letter>C	*>Letter>C	*>Letter>C	*>Letter>C	*>Letter>C
*>Label>Chorus	*>Label>Chorus	*>Label>Chorus	*>Label>Chorus	*>Label>Chorus	*>Label>Chorus	*>Label>Chorus	*>Label>Chorus
16r	.	1GMM	newline	voice	.	52.131	G:maj7
16B	I	.	.	.	.	.	.
16B	wan-	.	.	.	.	.	.
16B	-na	.	.	.	.	.	.
16d	make	.	.	.	.	.	.
8e	you	.	.	.	.	.	.
[16f#	un-	.	.	.	.	.	.
16f#]	_	.	.	.	.	.	.
8B	-der-	.	.	.	.	.	.
[16d	-stand	.	.	.	E	.	.
8d]	_	.	.	.	.	.	.
8d	I'm	.	.	.	.	.	.
=22	=22	=22	=22	=22	=22	=22	=22
16f	tal-	1B-Mm	.	voice	.	54.679	B-:9
16e	-king	.	.	.	.	.	.
16d	a-	.	.	.	.	.	.
[16d	-bout	.	.	.	.	.	.
8d]	_	.	.	.	.	.	.
16B	a	.	.	.	.	.	.
[16d	life	.	.	.	.	.	.
16d]	_	.	.	.	.	.	.
[8.c	time	.	.	.	.	.	.
8c]	_	.	.	.	.	.	.
[8d	plan	.	.	.	E	.	.
=23	=23	=23	=23	=23	=23	=23	=23
1d]	_	2DM	.	voice	.	57.228	D:maj
.	.	2GM	.	voice	.	58.502	G:maj/5
=24	=24	=24	=24	=24	=24	=24	=24
1r	.	1DM	.	voice	.	59.776	D:maj
=25	=25	=25	=25	=25	=25	=25	=25
*>Letter>B	*>Letter>B	*>Letter>B	*>Letter>B	*>Letter>B	*>Letter>B	*>Letter>B	*>Letter>B
*>Label>Verse	*>Label>Verse	*>Label>Verse	*>Label>Verse	*>Label>Verse	*>Label>Verse	*>Label>Verse	*>Label>Verse
4r	.	1GMM	newline	voice	.	62.324	G:maj7
8f#	That's	.	.	.	.	.	.
16e	the	.	.	.	.	.	.
[16d	way	.	.	.	.	.	.
16d]	_	.	.	.	.	.	.
16d	it	.	.	.	.	.	.
16B	be-	.	.	.	.	.	.
[16d	-gan	.	.	.	E	.	.
16d]	_	.	.	.	.	.	.
16d	We	.	.	.	.	.	.
8B	were	.	.	.	.	.	.
=26	=26	=26	=26	=26	=26	=26	=26
8d	hand-	1GMM	.	voice	.	64.872	G:maj7
16B	-in-	.	.	.	.	.	.
[16d	-hand	.	.	.	E	.	.
8d]	_	.	.	.	.	.	.
8B	Glenn	.	.	.	.	.	.
16d	Mil-	.	.	.	.	.	.
8B	-ler's	.	.	.	.	.	.
[16f#	band	.	.	.	E	.	.
8f#]	_	.	.	.	.	.	.
8g	Was	.	.	.	.	.	.
=27	=27	=27	=27	=27	=27	=27	=27
16f#	bet-	1CMm	.	voice	.	67.42	C:9(13,#11)
8.d	-ter	.	.	.	.	.	.
8d	than	.	.	.	E	.	.
16B-	be-	.	.	.	.	.	.
[16B-	-fore	.	.	.	F	.	.
2B-]	_	.	.	.	.	.	.
=28	=28	=28	=28	=28	=28	=28	=28
2r	.	1CMm	.	voice	.	69.968	C:9(13,#11)
4r	.	.	.	.	.	.	.
8r	.	.	.	.	.	.	.
8B	We	.	.	.	.	.	.
=29	=29	=29	=29	=29	=29	=29	=29
8B	yelled	1BMm	.	voice	.	72.515	B:9
8B	and	.	.	.	.	.	.
[4B	screamed	.	.	.	.	.	.
8B]	_	.	.	.	.	.	.
16F#	for	.	.	.	.	.	.
[16F#	more	.	.	.	F	.	.
4F#]	_	.	.	.	.	.	.
=30	=30	=30	=30	=30	=30	=30	=30
2r	.	1BMm	.	voice	.	75.063	B:9
8r	.	.	.	.	.	.	.
[8f#	And	.	.	.	.	.	.
16f#]	_	.	.	.	.	.	.
8.g	the	.	.	.	.	.	.
=31	=31	=31	=31	=31	=31	=31	=31
4f#	Por-	1GMM	newline	voice	F	77.611	G:maj7
8d	-ter	.	.	.	.	.	.
[8e	tune	.	.	.	G	.	.
8e]	_	.	.	.	.	.	.
[8d	_	.	.	.	.	.	.
4d]	_	.	.	.	.	.	.
=32	=32	=32	=32	=32	=32	=32	=32
2r	.	1GMM	.	voice	.	80.141	G:maj7
4r	.	.	.	.	.	.	.
16f#	Made	.	.	.	.	.	.
8.g	us	.	.	.	.	.	.
=33	=33	=33	=33	=33	=33	=33	=33
4.a	dance	1CMm	.	voice	.	82.672	C:9(13,#11)
16g	a-	.	.	.	.	.	.
[16f#	-cross	.	.	.	.	.	.
8f#]	_	.	.	.	.	.	.
8g	the	.	.	.	.	.	.
16f#	room	.	.	.	G	.	.
8.d	_	.	.	.	.	.	.
=34	=34	=34	=34	=34	=34	=34	=34
2r	.	1CMm	.	voice	.	85.203	C:9(13,#11)
4r	.	.	.	.	.	.	.
8.r	.	.	.	.	.	.	.
16B	It	.	.	.	.	.	.
=35	=35	=35	=35	=35	=35	=35	=35
8d#	en-	1BMm	.	voice	.	87.733	B:9
16B	-ded	.	.	.	.	.	.
[16B	all	.	.	.	.	.	.
16B]	_	.	.	.	.	.	.
8.d#	too	.	.	.	.	.	.
8B	soon	.	.	.	G	.	.
16A	_	.	.	.	.	.	.
[16F#	_	.	.	.	.	.	.
4F#]	_	.	.	.	.	.	.
=36	=36	=36	=36	=36	=36	=36	=36
1r	.	1BMm	.	voice	.	90.264	B:9
=37	=37	=37	=37	=37	=37	=37	=37
*>Letter>C	*>Letter>C	*>Letter>C	*>Letter>C	*>Letter>C	*>Letter>C	*>Letter>C	*>Letter>C
*>Label>Chorus	*>Label>Chorus	*>Label>Chorus	*>Label>Chorus	*>Label>Chorus	*>Label>Chorus	*>Label>Chorus	*>Label>Chorus
8.r	.	1GMM	newline	voice	.	92.795	G:maj7
16B	And	.	.	.	.	.	.
8d	on	.	.	.	.	.	.
16e	the	.	.	.	.	.	.
[16f#	way	.	.	.	.	.	.
16f#]	_	.	.	.	.	.	.
8e	back	.	.	.	.	.	.
[16e	home	.	.	.	H	.	.
8e]	_	.	.	.	.	.	.
8d	I	.	.	.	.	.	.
=38	=38	=38	=38	=38	=38	=38	=38
16f	pro-	1B-Mm	.	voice	.	95.317	B-:9
16e	-mised	.	.	.	.	.	.
8d	you'd	.	.	.	.	.	.
8d	ne-	.	.	.	.	.	.
16B	-ver	.	.	.	.	.	.
[16d	be	.	.	.	.	.	.
8.d]	_	.	.	.	.	.	.
[16c	a-	.	.	.	.	.	.
8c]	_	.	.	.	.	.	.
[8d	-lone	.	.	.	H	.	.
=39	=39	=39	=39	=39	=39	=39	=39
1d_	_	2DM	.	voice	.	97.839	D:maj
.	.	2GM	.	voice	.	99.1	G:maj/5
=40	=40	=40	=40	=40	=40	=40	=40
4d]	_	1DM	.	voice	.	100.361	D:maj
4r	.	.	.	.	.	.	.
2r	.	.	.	.	.	.	.
=41	=41	=41	=41	=41	=41	=41	=41
*>Letter>D	*>Letter>D	*>Letter>D	*>Letter>D	*>Letter>D	*>Letter>D	*>Letter>D	*>Letter>D
*>Label>Bridge	*>Label>Bridge	*>Label>Bridge	*>Label>Bridge	*>Label>Bridge	*>Label>Bridge	*>Label>Bridge	*>Label>Bridge
8b	Hur-	1GMM	newline	voice	.	102.883	G:maj7
16a	-ry,	.	.	.	.	.	.
[16b	don't	.	.	.	.	.	.
16b]	_	.	.	.	.	.	.
16a	be	.	.	.	(a	.	.
8b	late	.	.	.	A)	.	.
2r	.	.	.	.	.	.	.
=42	=42	=42	=42	=42	=42	=42	=42
8a	I	1Gmm	.	voice	.	105.426	G:min9
16g	can't	.	.	.	.	.	.
[16a	har-	.	.	.	.	.	.
16a]	_	.	.	.	.	.	.
16g	-dly	.	.	.	(a	.	.
[8a	wait	.	.	.	A)	.	.
4.a]	_	.	.	.	.	.	.
8b	I	.	.	.	.	.	.
=43	=43	=43	=43	=43	=43	=43	=43
6f#	said	1BMm	.	voice	.	107.968	B:9
6f#	to	.	.	.	.	.	.
6e	my-	.	.	.	.	.	.
6f#	-self	.	.	.	.	.	.
6g	when	.	.	.	.	.	.
6a	we're	.	.	.	.	.	.
=44	=44	=44	=44	=44	=44	=44	=44
2.f#	old	1BMm	.	voice	.	110.511	B:9
16f#	We'll	.	.	.	.	.	.
8.f#	go	.	.	.	.	.	.
=45	=45	=45	=45	=45	=45	=45	=45
*>Letter>C	*>Letter>C	*>Letter>C	*>Letter>C	*>Letter>C	*>Letter>C	*>Letter>C	*>Letter>C
*>Label>Chorus	*>Label>Chorus	*>Label>Chorus	*>Label>Chorus	*>Label>Chorus	*>Label>Chorus	*>Label>Chorus	*>Label>Chorus
8f#	dan-	1GMM	newline	voice	.	113.054	G:maj7
16d	-cing	.	.	.	i	.	.
[16d	in	.	.	.	.	.	.
16d]	_	.	.	.	.	.	.
16d	the	.	.	.	.	.	.
[8d	dark	.	.	.	J	.	.
4d]	_	.	.	.	.	.	.
4r	.	.	.	.	.	.	.
=46	=46	=46	=46	=46	=46	=46	=46
8f	Wal-	1B-Mm	.	voice	.	115.557	B-:9
8e	-king	.	.	.	i	.	.
8d	through	.	.	.	.	.	.
16B-	the	.	.	.	.	.	.
[16B-	park	.	.	.	J	.	.
8B-]	_	.	.	.	.	.	.
8d	And	.	.	.	.	.	.
8d	re-	.	.	.	.	.	.
16c	-mi-	.	.	.	.	.	.
[16e	-nis-	.	.	.	(I	.	.
=47	=47	=47	=47	=47	=47	=47	=47
16e]	_	2DM	.	voice	.	118.06	D:maj
[8.d	-cing	.	.	.	i)	.	.
2.d]	_	.	.	.	.	.	.
.	.	2GM	.	voice	.	119.311	G:maj/5
=48	=48	=48	=48	=48	=48	=48	=48
1r	.	1DM	.	voice	.	120.563	D:maj
=49	=49	=49	=49	=49	=49	=49	=49
*>Letter>B	*>Letter>B	*>Letter>B	*>Letter>B	*>Letter>B	*>Letter>B	*>Letter>B	*>Letter>B
*>Label>Verse	*>Label>Verse	*>Label>Verse	*>Label>Verse	*>Label>Verse	*>Label>Verse	*>Label>Verse	*>Label>Verse
8d	Fri-	1GMM	newline	voice	.	123.066	G:maj7
16B	-day	.	.	.	.	.	.
[16d	night,	.	.	.	.	.	.
16d]	_	.	.	.	.	.	.
16d	it	.	.	.	.	.	.
16B	was	.	.	.	.	.	.
[16d	late	.	.	.	A	.	.
16d]	_	.	.	.	.	.	.
16d	I	.	.	.	.	.	.
8B	was	.	.	.	.	.	.
16d	wal-	.	.	.	.	.	.
16d	-king	.	.	.	.	.	.
16B	you	.	.	.	.	.	.
[16d	home	.	.	.	.	.	.
=50	=50	=50	=50	=50	=50	=50	=50
8d]	_	1GMM	.	voice	.	125.63	G:maj7
16B	We	.	.	.	.	.	.
[16d	got	.	.	.	.	.	.
16d]	_	.	.	.	.	.	.
8B	down	.	.	.	.	.	.
[16d	to	.	.	.	.	.	.
16d]	_	.	.	.	.	.	.
16B	the	.	.	.	.	.	.
8d	gate	.	.	.	A	.	.
16B	And	.	.	.	.	.	.
8f#	I	.	.	.	.	.	.
16g	was	.	.	.	.	.	.
=51	=51	=51	=51	=51	=51	=51	=51
8f#	dream-	1CMm	.	voice	.	128.195	C:9(13,#11)
16d	-ing	.	.	.	.	.	.
[16d	of	.	.	.	.	.	.
16d]	_	.	.	.	.	.	.
16B-	the	.	.	.	.	.	.
[8B-	night	.	.	.	B	.	.
2B-]	_	.	.	.	.	.	.
=52	=52	=52	=52	=52	=52	=52	=52
1r	.	1CMm	.	voice	.	130.76	C:9(13,#11)
=53	=53	=53	=53	=53	=53	=53	=53
16F#	Would	1BMm	.	voice	.	133.325	B:9
8G#	it	.	.	.	.	.	.
[16B	turn	.	.	.	.	.	.
16B]	_	.	.	.	.	.	.
8.d	out	.	.	.	.	.	.
8c#	_	.	.	.	.	.	.
4.B	right?	.	.	.	B	.	.
=54	=54	=54	=54	=54	=54	=54	=54
2r	.	1BMm	.	voice	.	135.889	B:9
6a	Now	.	.	.	.	.	.
6g#	as	.	.	.	.	.	.
6g	the	.	.	.	.	.	.
=55	=55	=55	=55	=55	=55	=55	=55
4f#	years	1GMM	newline	voice	.	138.454	G:maj7
16d	roll	.	.	.	.	.	.
16B	_	.	.	.	.	.	.
[8e	on	.	.	.	K	.	.
8e]	_	.	.	.	.	.	.
[8d	_	.	.	.	.	.	.
8d]	_	.	.	.	.	.	.
16B	_	.	.	.	.	.	.
16A	_	.	.	.	.	.	.
=56	=56	=56	=56	=56	=56	=56	=56
16B	_	1GMM	.	voice	.	140.975	G:maj7
[8.d	_	.	.	.	.	.	.
4d]	_	.	.	.	.	.	.
8r	.	.	.	.	.	.	.
8f#	Each	.	.	.	.	.	.
8f#	time	.	.	.	.	.	.
8g	we	.	.	.	.	.	.
=57	=57	=57	=57	=57	=57	=57	=57
8a	hear	1CMm	.	voice	.	143.497	C:9(13,#11)
8g	our	.	.	.	.	.	.
8f#	fa-	.	.	.	.	.	.
8g	-v'rite	.	.	.	.	.	.
16f#	song	.	.	.	K	.	.
[8.d	_	.	.	.	.	.	.
4d_	_	.	.	.	.	.	.
=58	=58	=58	=58	=58	=58	=58	=58
4.d]	_	1CMm	.	voice	.	146.018	C:9(13,#11)
8r	.	.	.	.	.	.	.
4r	.	.	.	.	.	.	.
8.r	.	.	.	.	.	.	.
16B	The	.	.	.	.	.	.
=59	=59	=59	=59	=59	=59	=59	=59
8d#	memo-	1BMm	.	voice	.	148.539	B:9
8B	-ries	.	.	.	.	.	.
8B	come	.	.	.	.	.	.
16A	a-	.	.	.	.	.	.
[16B	-long	.	.	.	K	.	.
16B]	_	.	.	.	.	.	.
16A	_	.	.	.	.	.	.
[8F#	_	.	.	.	.	.	.
4F#]	_	.	.	.	.	.	.
=60	=60	=60	=60	=60	=60	=60	=60
1r	.	1BMm	.	voice	.	151.061	B:9
=61	=61	=61	=61	=61	=61	=61	=61
*>Letter>C	*>Letter>C	*>Letter>C	*>Letter>C	*>Letter>C	*>Letter>C	*>Letter>C	*>Letter>C
*>Label>Chorus	*>Label>Chorus	*>Label>Chorus	*>Label>Chorus	*>Label>Chorus	*>Label>Chorus	*>Label>Chorus	*>Label>Chorus
4f#	Ol-	1GMM	newline	voice	.	153.582	G:maj7
8e	-der	.	.	.	.	.	.
[8e	times	.	.	.	.	.	.
8e]	_	.	.	.	.	.	.
8d	we're	.	.	.	.	.	.
16d	mis-	.	.	.	(I	.	.
16e	-sing	.	.	.	i)	.	.
8r	.	.	.	.	.	.	.
=62	=62	=62	=62	=62	=62	=62	=62
12f	Spen-	1B-Mm	.	voice	.	156.102	B-:9
12e	-ding	.	.	.	.	.	.
12d	the	.	.	.	.	.	.
8d	hours	.	.	.	.	.	.
8B	_	.	.	.	.	.	.
8d	re-	.	.	.	.	.	.
16B	-mi-	.	.	.	.	.	.
[16e	-nis-	.	.	.	(I	.	.
16e]	_	.	.	.	.	.	.
[8.d	-cing	.	.	.	i)	.	.
=63	=63	=63	=63	=63	=63	=63	=63
1d]	_	2DM	.	voice	.	158.622	D:maj
.	.	2GM	.	voice	.	159.882	G:maj/5
=64	=64	=64	=64	=64	=64	=64	=64
1r	.	1DM	.	voice	.	161.142	D:maj
=65	=65	=65	=65	=65	=65	=65	=65
*>Letter>D	*>Letter>D	*>Letter>D	*>Letter>D	*>Letter>D	*>Letter>D	*>Letter>D	*>Letter>D
*>Label>Bridge	*>Label>Bridge	*>Label>Bridge	*>Label>Bridge	*>Label>Bridge	*>Label>Bridge	*>Label>Bridge	*>Label>Bridge
8b	Hur-	1GMM	newline	voice	.	163.662	G:maj7
16a	-ry,	.	.	.	.	.	.
[16b	don't	.	.	.	.	.	.
16b]	_	.	.	.	.	.	.
16a	be	.	.	.	.	.	.
8b	late	.	.	.	A	.	.
2r	.	.	.	.	.	.	.
=66	=66	=66	=66	=66	=66	=66	=66
8a	I	1Gmm	.	voice	.	166.191	G:min9
16g	can't	.	.	.	.	.	.
[16a	har-	.	.	.	.	.	.
16a]	_	.	.	.	.	.	.
16g	-dly	.	.	.	.	.	.
[8a	wait	.	.	.	A	.	.
4.a]	_	.	.	.	.	.	.
8b	I	.	.	.	.	.	.
=67	=67	=67	=67	=67	=67	=67	=67
6f#	said	1BMm	.	voice	.	168.719	B:9
6f#	to	.	.	.	.	.	.
6a	my-	.	.	.	.	.	.
6f#	-self	.	.	.	.	.	.
6g	when	.	.	.	.	.	.
[6a	we're	.	.	.	.	.	.
=68	=68	=68	=68	=68	=68	=68	=68
8a]	_	1BMm	.	voice	.	171.248	B:9
[8d#	old	.	.	.	.	.	.
2d#]	_	.	.	.	.	.	.
16f#	We'll	.	.	.	.	.	.
8.f#	go	.	.	.	.	.	.
=69	=69	=69	=69	=69	=69	=69	=69
*>Letter>C	*>Letter>C	*>Letter>C	*>Letter>C	*>Letter>C	*>Letter>C	*>Letter>C	*>Letter>C
*>Label>Chorus	*>Label>Chorus	*>Label>Chorus	*>Label>Chorus	*>Label>Chorus	*>Label>Chorus	*>Label>Chorus	*>Label>Chorus
8f#	dan-	1GMM	newline	voice	.	173.776	G:maj7
16d	-cing	.	.	.	.	.	.
[16d	in	.	.	.	.	.	.
16d]	_	.	.	.	.	.	.
16d	the	.	.	.	.	.	.
[8d	dark	.	.	.	B	.	.
4d]	_	.	.	.	.	.	.
4r	.	.	.	.	.	.	.
=70	=70	=70	=70	=70	=70	=70	=70
8f	Wal-	1B-Mm	.	voice	.	176.279	B-:9
8e	-king	.	.	.	.	.	.
8d	through	.	.	.	.	.	.
16B-	the	.	.	.	.	.	.
[16B-	park	.	.	.	B	.	.
8B-]	_	.	.	.	.	.	.
8d	And	.	.	.	.	.	.
8d	re-	.	.	.	.	.	.
16c	-mi-	.	.	.	(I	.	.
[16e	-nis-	.	.	.	i)	.	.
=71	=71	=71	=71	=71	=71	=71	=71
16e]	_	2DM	.	voice	.	178.781	D:maj
[8.d	-cing	.	.	.	.	.	.
2.d]	_	.	.	.	.	.	.
.	.	2GM	.	voice	.	180.032	G:maj/5
=72	=72	=72	=72	=72	=72	=72	=72
1r	.	1DM	.	voice	.	181.284	D:maj
=73	=73	=73	=73	=73	=73	=73	=73
*>Letter>B	*>Letter>B	*>Letter>B	*>Letter>B	*>Letter>B	*>Letter>B	*>Letter>B	*>Letter>B
*>Label>Outro	*>Label>Outro	*>Label>Outro	*>Label>Outro	*>Label>Outro	*>Label>Outro	*>Label>Outro	*>Label>Outro
1r	.	1GMM	newline	trumpet	.	183.786	G:maj7
=74	=74	=74	=74	=74	=74	=74	=74
1r	.	1GMM	.	trumpet	.	186.272	G:maj7
=75	=75	=75	=75	=75	=75	=75	=75
1r	.	1CMm	.	trumpet	.	188.758	C:9(13,#11)
=76	=76	=76	=76	=76	=76	=76	=76
1r	.	1CMm	.	trumpet	.	191.244	C:9(13,#11)
=77	=77	=77	=77	=77	=77	=77	=77
1r	.	1BMm	.	trumpet	.	193.73	B:9
=78	=78	=78	=78	=78	=78	=78	=78
1r	.	1BMm	.	trumpet	.	196.216	B:9
r;	.	1r;	.	r	.	207.403	N.C.
r;	.	1r;	.	r	.	211.578	N.C.
*-	*-	*-	*-	*-	*-	*-	*-
!!!BillboardChartDate: 1978/08/19
!!!BillboardPeak: 3
!!!BillboardWeeksOnChart: 20
!!!COC: Little River Band
!!!ENC: Nathaniel Condit-Schultz
!!!EST: Awating manual error checking and editing.
!!!OTL: Reminiscing
!!!RDF**chordsym: original McGill chord annotation + (implied pitch class set, with bass pitch in first position)
!!!RDF**harmony: **recip + pitch class of root + harmonic quality
!!!RDF**leadinstrument: original McGill primary instrumentation annotation
!!!RDF**phrase: newline = linebreak in original McGill transcription
!!!RDF**timestamp: McGill audio timestamp in seconds
!!!RDT: 2017/01/12/
!!!SampleActualRank: 28
!!!SampleID#: 0077
!!!SampleTargetRank: 27
